playlet-lib/src/images/icons/settings.svg

<?xml version="1.0" encoding="UTF-8" standalone="no"?>
<svg
   viewBox="0 0 24 24"
   preserveAspectRatio="xMidYMid meet"
   focusable="false"
   class="style-scope yt-icon"
   style="pointer-events: none; display: block; width: 100%; height: 100%;"
   version="1.1"
   id="svg6"
   sodipodi:docname="settings.svg"
   inkscape:version="1.2.1 (9c6d41e4, 2022-07-14)"
   xmlns:inkscape="http://www.inkscape.org/namespaces/inkscape"
   xmlns:sodipodi="http://sodipodi.sourceforge.net/DTD/sodipodi-0.dtd"
   xmlns="http://www.w3.org/2000/svg"
   xmlns:svg="http://www.w3.org/2000/svg">
   <defs
      id="defs10" />
   <sodipodi:namedview
      id="namedview8"
      pagecolor="#ffffff"
      bordercolor="#000000"
      borderopacity="0.25"
      inkscape:showpageshadow="2"
      inkscape:pageopacity="0.0"
      inkscape:pagecheckerboard="true"
      inkscape:deskcolor="#d1d1d1"
      showgrid="false"
      inkscape:zoom="13.686545"
      inkscape:cx="4.8587864"
      inkscape:cy="9.4618472"
      inkscape:window-width="1440"
      inkscape:window-height="741"
      inkscape:window-x="0"
      inkscape:window-y="25"
      inkscape:window-maximized="1"
      inkscape:current-layer="svg6" />
   <path
      style="fill:#EBEBEB;fill-opacity:1;stroke:none;stroke-width:0.109841;stroke-linejoin:round;stroke-opacity:1"
      d="m 15.714836,21.162285 c -0.04775,-0.04749 -0.527468,-0.542802 -1.065938,-1.100714 l -0.979041,-1.014393 -0.401626,0.07171 c -0.798456,0.142554 -1.580726,0.147794 -2.503447,0.01686 -0.364348,-0.05169 -0.444733,-0.05071 -0.504209,0.0063 -0.03895,0.03725 -0.5144649,0.526951 -1.0567701,1.088029 C 8.4680071,20.991356 8.203688,21.246191 8.162186,21.234332 8.081135,21.211112 5.9341972,19.95012 5.9128502,19.913146 c -0.00993,-0.0172 0.016734,-0.142872 0.059234,-0.279317 0.042496,-0.136422 0.2299991,-0.793515 0.4166734,-1.46018 L 6.7281551,16.961524 6.4320785,16.592865 C 5.862289,15.883396 5.5132974,15.266256 5.1993639,14.412999 L 5.0846579,14.101224 3.5992283,13.719846 C 2.7822408,13.510091 2.1094745,13.329756 2.1041891,13.319102 2.0919131,13.294362 2.0925311,10.757317 2.104804,10.708556 2.109834,10.688526 2.7786769,10.50587 3.5910878,10.302655 L 5.0682014,9.9331788 5.2345008,9.49992 C 5.5668964,8.6339312 5.8969037,8.0666765 6.4513094,7.4083326 L 6.7557649,7.046799 6.324366,5.5632096 5.892967,4.0796189 7.0480999,3.4126974 l 1.1551364,-0.666923 1.03413,1.0724325 c 0.5687708,0.5898369 1.0572367,1.0875367 1.0854787,1.1059973 0.02829,0.018417 0.21134,0.00474 0.406889,-0.030492 0.790829,-0.1424909 1.589383,-0.157455 2.38967,-0.044773 0.239703,0.033751 0.467774,0.062471 0.506828,0.063827 0.05368,0.0019 0.310948,-0.2443599 1.058958,-1.0138065 0.543376,-0.5589475 1.017625,-1.0497633 1.053889,-1.0907012 0.06474,-0.073076 0.08731,-0.062128 1.218007,0.5894222 l 1.152073,0.6638555 -0.414336,1.4812102 -0.414341,1.4812129 0.332573,0.4139806 c 0.457518,0.5695045 0.878631,1.3000551 1.134089,1.9672118 l 0.184326,0.4815741 1.492081,0.3814192 1.492073,0.381423 -0.0011,1.331172 c -9.6e-4,1.018585 -0.01526,1.334289 -0.06085,1.344453 -0.03215,0.0084 -0.699811,0.174229 -1.482307,0.370848 l -1.422738,0.357586 -0.184484,0.459619 c -0.347827,0.866592 -0.697041,1.456493 -1.234554,2.085471 -0.128966,0.150781 -0.241407,0.300395 -0.249955,0.332304 -0.0086,0.03194 0.176103,0.715813 0.410391,1.519776 l 0.425965,1.461751 -1.157043,0.667928 -1.157041,0.66793 z M 14.817887,15.430457 C 16.1088,14.392165 16.715634,12.590505 16.315859,10.983087 16.194833,10.496685 16.090431,10.239913 15.829488,9.7876861 15.227049,8.7438292 14.328202,8.05216 13.161621,7.7349075 12.310631,7.5034832 11.465346,7.5225017 10.621102,7.7920677 10.222996,7.9191817 9.5504789,8.2883743 9.212051,8.5655933 8.6840063,8.9981312 8.1829691,9.6573062 7.9340178,10.246988 c -0.1411802,0.334411 -0.2932223,0.906302 -0.337672,1.270119 -0.075243,0.615864 0.032489,1.443823 0.2696245,2.072115 0.1544825,0.409292 0.5523051,1.06528 0.8335102,1.374421 0.9394316,1.03272 2.2157115,1.545738 3.6158285,1.453426 0.931821,-0.06141 1.75658,-0.386598 2.502582,-0.986616 z"
      id="path1194" />
</svg>

<svg xmlns="http://www.w3.org/2000/svg" class="style-scope yt-icon" style="pointer-events:none;display:block;width:100%;height:100%" viewBox="0 0 24 24">
    <path d="M15.715 21.162c-.048-.047-.528-.543-1.066-1.1l-.98-1.015-.4.072c-.8.142-1.581.148-2.504.017-.365-.052-.445-.051-.504.006-.04.037-.515.527-1.057 1.088-.736.761-1 1.016-1.042 1.004-.08-.023-2.228-1.284-2.25-1.32-.01-.018.018-.144.06-.28.043-.137.23-.794.417-1.46l.34-1.212-.297-.37A7.2 7.2 0 0 1 5.2 14.414l-.114-.312-1.486-.381a40 40 0 0 1-1.495-.4 93 93 0 0 1 0-2.611c.006-.02.675-.203 1.487-.406l1.477-.37.167-.433c.332-.866.662-1.433 1.216-2.092l.305-.361-.432-1.484-.431-1.483 1.155-.667 1.155-.667 1.034 1.072c.57.59 1.058 1.088 1.086 1.106s.211.005.407-.03a7.5 7.5 0 0 1 2.39-.045c.24.034.467.062.506.064.054.002.311-.245 1.06-1.014a165 165 0 0 0 1.053-1.09c.065-.074.087-.063 1.218.589l1.152.664-.414 1.48-.415 1.482.333.414c.458.57.879 1.3 1.134 1.967l.184.482 1.493.381 1.492.382-.001 1.33c-.001 1.02-.016 1.335-.061 1.345-.032.009-.7.174-1.483.371l-1.422.358-.185.46c-.348.866-.697 1.456-1.234 2.085-.13.15-.242.3-.25.332s.176.716.41 1.52l.426 1.462-1.157.667-1.157.668zm-.897-5.732c1.29-1.038 1.898-2.84 1.498-4.447a3.9 3.9 0 0 0-.487-1.195 4.28 4.28 0 0 0-2.667-2.053 4.4 4.4 0 0 0-2.54.057c-.399.127-1.072.496-1.41.774-.528.432-1.029 1.091-1.278 1.681a5.7 5.7 0 0 0-.338 1.27c-.075.616.033 1.444.27 2.072.154.41.552 1.066.833 1.375a4.4 4.4 0 0 0 3.616 1.453 4.34 4.34 0 0 0 2.503-.987" style="fill:#ebebeb;fill-opacity:1;stroke:none;stroke-width:.109841;stroke-linejoin:round;stroke-opacity:1"/>
</svg>
